X:1
T:Title
%%score { 1 | 2 }
L:1/8
M:4/4
K:A
V:1 treble nm="Grand Piano"
V:2 bass 
V:1
 z4 z2[Q:1/4=106] E2 | [CA]2 [CA]2 [CA]2 [Ec]2 | c4 B2 A2 | [EB]2 [EB]2 [^DB]2 [Dc]2 |[M:3/4] B6 | %5
[M:1/4] E2 |[M:4/4] [CA]2 [CA]2 [CA]2 [Ec]2 | [Ec]4 [EB]2 [EA]2 | [FB]2 [FB]2 c2 B2 | %9
[M:3/4] [CA]6 |[M:1/4] c2 |[M:4/4] e2 c2 d2 B2 | c4 A2 c2 | F2 [EA]2 [Ed]2 [Ec]2 |[M:3/4] B6 | %15
[M:1/4] c2 |[M:4/4] e2 c2 d2 B2 | c4 A2 E2 | F2 [Fd]2 c2 B2 |[M:3/4] [CA]6 |] %20
V:2
 z4 z2 E,2 | [A,,E,]2 [A,,E,]2 [A,,E,]2 [A,,A,]2 | [E,A,E]4 [E,G,E]2 [F,A,C]2 | %3
 [B,,G,]2 [B,,G,]2 [B,,F,]2 [B,,A,]2 |[M:3/4] [E,G,E]6 |[M:1/4] E,2 | %6
[M:4/4] [A,,E,]2 [A,,E,]2 [A,,E,]2 [A,,A,]2 | [E,A,]4 [E,G,]2 [C,A,]2 | %8
 [D,A,]2 [D,A,]2 [E,A,E]2 [E,D]2 |[M:3/4] [A,,E,]6 |[M:1/4] [A,E]2 | %11
[M:4/4] [A,CE]2 [A,E]2 [E,B,E]2 [E,G,E]2 | [A,E]4 [A,C]2 [A,E]2 | %13
 [D,A,D]2 [C,A,]2 [B,,G,]2 [A,,A,]2 |[M:3/4] [E,G,E]6 |[M:1/4] [A,E]2 | %16
[M:4/4] [A,CE]2 [A,E]2 [E,B,E]2 [E,G,E]2 | [A,E]4 [A,C]2 [C,A,]2 | %18
 [D,A,D]2 [D,A,]2 [E,A,E]2 [E,D]2 |[M:3/4] [A,,E,]6 |] %20

